tools/download-figma-icons/icons/outlined-large/wallbe-pro.svg

<svg width="64" height="64" viewBox="0 0 64 64" fill="none" xmlns="http://www.w3.org/2000/svg">
<path fill-rule="evenodd" clip-rule="evenodd" d="M3 7.5C3 5.019 5.019 3 7.5 3H56.5C58.981 3 61 5.019 61 7.5V56.5C61 58.981 58.981 61 56.5 61H7.5C5.019 61 3 58.981 3 56.5V7.5ZM7.5 64H56.5C60.636 64 64 60.636 64 56.5V7.5C64 3.364 60.636 0 56.5 0H7.5C3.364 0 0 3.364 0 7.5V56.5C0 60.636 3.364 64 7.5 64ZM31 31C33.762 31 36 28.762 36 26C36 23.238 33.762 21 31 21C28.238 21 26 23.238 26 26C26 28.762 28.238 31 31 31ZM50 40C50 41.657 48.657 43 47 43C45.343 43 44 41.657 44 40C44 38.343 45.343 37 47 37C48.657 37 50 38.343 50 40ZM46.9939 48C43.7299 48 41.7389 45.712 40.8379 44.334C40.4682 43.7288 40.1341 43.1641 39.8228 42.6379L39.8169 42.628C37.4709 38.657 36.0539 36.26 30.1179 35.608C26.8562 35.2512 25.5896 34.2743 24.1259 33.1453L24.1229 33.143L24.1227 33.1429C22.2148 31.6699 20.0517 30 13.9829 30C11.6759 30 10.0779 29.36 9.3639 28.151C8.9799 27.5 8.9659 26.732 9.0219 26.203C9.3099 23.493 11.0709 22 13.9829 22C14.1622 22 14.3556 22.0047 14.5614 22.0097C14.607 22.0108 14.6532 22.0119 14.6999 22.013C16.9049 22.072 20.6119 22.166 24.1869 19.005C26.1339 17.095 28.6129 16 30.9879 16C35.0009 16 38.6559 18.618 40.0579 22.438C40.1689 22.805 42.8759 31.425 49.7869 33.428C51.3539 33.992 54.9969 35.761 54.9969 40C54.9969 44.337 51.4239 48 47.1939 48H46.9939ZM46.9939 51H47.1939C53.1509 51 57.9969 46.065 57.9969 40C57.9969 35.739 55.3079 32.227 50.7129 30.576C45.3035 29.0056 42.9684 21.6953 42.9016 21.4862L42.9009 21.484C41.0419 16.409 36.2549 13 30.9879 13C27.7879 13 24.6269 14.372 22.1439 16.81C19.5109 19.136 16.7739 19.066 14.7769 19.014L14.7167 19.0125C14.4545 19.006 14.2096 19 13.9829 19C9.5329 19 6.4889 21.639 6.0389 25.886C5.8889 27.291 6.1459 28.602 6.7809 29.677C7.6769 31.193 9.6529 33 13.9829 33C19.0279 33 20.5399 34.167 22.2889 35.518L22.2901 35.5189C23.8828 36.7477 25.6889 38.1411 29.7909 38.591C34.2339 39.078 34.9299 40.255 37.2349 44.155C37.2741 44.2211 37.3136 44.2879 37.3536 44.3553C37.6425 44.8431 37.9506 45.3635 38.2889 45.917L38.3129 45.953C40.4009 49.16 43.5659 51 46.9939 51Z" fill="black"/>
</svg>

<svg xmlns="http://www.w3.org/2000/svg" width="64" height="64" fill="none" viewBox="0 0 64 64"><path fill="currentColor" fill-rule="evenodd" d="M3 7.5C3 5.019 5.019 3 7.5 3h49C58.981 3 61 5.019 61 7.5v49c0 2.481-2.019 4.5-4.5 4.5h-49A4.505 4.505 0 0 1 3 56.5zM7.5 64h49c4.136 0 7.5-3.364 7.5-7.5v-49C64 3.364 60.636 0 56.5 0h-49C3.364 0 0 3.364 0 7.5v49C0 60.636 3.364 64 7.5 64M31 31a5 5 0 0 0 5-5 5 5 0 0 0-5-5 5 5 0 0 0-5 5 5 5 0 0 0 5 5m19 9a3 3 0 1 1-6 0 3 3 0 0 1 6 0m-3.006 8c-3.264 0-5.255-2.288-6.156-3.666-.37-.605-.704-1.17-1.015-1.696l-.006-.01c-2.346-3.971-3.763-6.368-9.7-7.02-3.26-.357-4.527-1.334-5.991-2.463l-.003-.002C22.215 31.67 20.052 30 13.983 30c-2.307 0-3.905-.64-4.62-1.849-.383-.651-.397-1.419-.341-1.948C9.31 23.493 11.07 22 13.982 22q.27.001.58.01l.138.003c2.205.059 5.912.153 9.487-3.008 1.947-1.91 4.426-3.005 6.8-3.005 4.014 0 7.669 2.618 9.07 6.438.112.367 2.819 8.987 9.73 10.99 1.567.564 5.21 2.333 5.21 6.572 0 4.337-3.573 8-7.803 8zm0 3h.2c5.957 0 10.803-4.935 10.803-11 0-4.261-2.69-7.773-7.284-9.424-5.41-1.57-7.745-8.88-7.811-9.09l-.001-.002C41.04 16.409 36.255 13 30.988 13c-3.2 0-6.361 1.372-8.844 3.81-2.633 2.326-5.37 2.256-7.367 2.204l-.06-.002a30 30 0 0 0-.734-.012c-4.45 0-7.494 2.639-7.944 6.886-.15 1.405.107 2.716.742 3.791C7.677 31.193 9.653 33 13.983 33c5.045 0 6.557 1.167 8.306 2.518h.001c1.593 1.23 3.399 2.623 7.5 3.073 4.444.487 5.14 1.664 7.445 5.564l.119.2q.43.732.935 1.562l.024.036C40.4 49.16 43.566 51 46.993 51" clip-rule="evenodd"/></svg>
